storage/app/icons/phosphoricons/fill/file-archive-fill.svg

<svg xmlns="http://www.w3.org/2000/svg" fill="currentColor" viewBox="0 0 256 256"><path d="m213.66 82.34-56-56A8 8 0 0 0 152 24H56a16 16 0 0 0-16 16v176a16 16 0 0 0 16 16h36a4 4 0 0 0 4-4v-20h-7.73a8.17 8.17 0 0 1-8.27-7.47 8 8 0 0 1 8-8.53h8v-16h-7.73a8.17 8.17 0 0 1-8.27-7.47 8 8 0 0 1 8-8.53h8v-16h-7.73a8.17 8.17 0 0 1-8.27-7.47 8 8 0 0 1 8-8.53h8v-7.73a8.18 8.18 0 0 1 7.47-8.25 8 8 0 0 1 8.53 8v8h7.73a8.17 8.17 0 0 1 8.25 7.47 8 8 0 0 1-8 8.53h-8v16h7.73a8.17 8.17 0 0 1 8.25 7.47 8 8 0 0 1-8 8.53h-8v16h7.73a8.17 8.17 0 0 1 8.25 7.47 8 8 0 0 1-8 8.53h-8v20a4 4 0 0 0 4 4h84a16 16 0 0 0 16-16V88a8 8 0 0 0-2.28-5.66M152 88V44l44 44Z"/></svg>

<svg xmlns="http://www.w3.org/2000/svg" viewBox="0 0 256 256" fill="currentColor"><path d="M213.66,82.34l-56-56A8,8,0,0,0,152,24H56A16,16,0,0,0,40,40V216a16,16,0,0,0,16,16H92a4,4,0,0,0,4-4V208H88.27A8.17,8.17,0,0,1,80,200.53,8,8,0,0,1,88,192h8V176H88.27A8.17,8.17,0,0,1,80,168.53,8,8,0,0,1,88,160h8V144H88.27A8.17,8.17,0,0,1,80,136.53,8,8,0,0,1,88,128h8v-7.73a8.18,8.18,0,0,1,7.47-8.25,8,8,0,0,1,8.53,8v8h7.73a8.17,8.17,0,0,1,8.25,7.47,8,8,0,0,1-8,8.53h-8v16h7.73a8.17,8.17,0,0,1,8.25,7.47,8,8,0,0,1-8,8.53h-8v16h7.73a8.17,8.17,0,0,1,8.25,7.47,8,8,0,0,1-8,8.53h-8v20a4,4,0,0,0,4,4h84a16,16,0,0,0,16-16V88A8,8,0,0,0,213.66,82.34ZM152,88V44l44,44Z"/></svg>
